icons/_assets/aspect_ratio_fit.svg

<?xml version="1.0" encoding="UTF-8"?>
<svg width="100px" height="100px" viewBox="0 0 100 100" version="1.1" xmlns="http://www.w3.org/2000/svg" xmlns:xlink="http://www.w3.org/1999/xlink">
    <title>aspect-ratio / fit</title>
    <g id="aspect-ratio-/-fit" stroke="none" stroke-width="1" fill="none" fill-rule="evenodd">
        <path d="M0,99.9990667 L100,99.9990667 L100,-0.000933333333 L0,-0.000933333333 L0,99.9990667 Z M1.34217378,98.6569109 L98.6578262,98.6569109 L98.6578262,1.34122244 L1.34217378,1.34122244 L1.34217378,98.6569109 Z" id="outline" fill="#FFFFFF" opacity="0"></path>
        <path d="M52.2751636,58.0864008 L56.5061459,61.8001477 C57.4803497,62.656139 58.9719731,62.5666672 59.8329915,61.6011731 C60.6980522,60.6343437 60.6077733,59.1573915 59.6322219,58.3014002 L51.4801701,51.1436572 C51.4451365,51.1116076 51.4033656,51.0915766 51.3656371,51.0621978 C51.2982648,51.0101172 51.2322399,50.959372 51.1594778,50.9139684 C51.0961478,50.8765772 51.0314704,50.8431922 50.9654455,50.8111426 C50.8967257,50.7750868 50.8266585,50.7417018 50.7512015,50.7136585 C50.6784394,50.6869505 50.6056772,50.6655841 50.5302202,50.6468885 C50.4574581,50.6268575 50.3873909,50.6081619 50.3132813,50.5961433 C50.2283922,50.5814539 50.1475454,50.5761123 50.0626563,50.5707707 C50.0141482,50.5680999 49.9669876,50.5560813 49.917132,50.5560813 C49.8942254,50.5560813 49.8726663,50.5627583 49.8497597,50.5627583 C49.7675655,50.5654291 49.6853712,50.5761123 49.603177,50.5881309 C49.5304149,50.5974787 49.4576527,50.6041557 49.3862381,50.6215159 C49.313476,50.6375407 49.2420613,50.6629133 49.1706466,50.6869505 C49.0978845,50.7123231 49.0237749,50.7336894 48.9550552,50.7644036 C48.8863354,50.7937824 48.8230054,50.832509 48.7596754,50.8699002 C48.6909556,50.9072914 48.6222359,50.9433472 48.5589059,50.9887508 C48.4996182,51.0288128 48.4470678,51.0782226 48.3918225,51.1249616 C48.3284925,51.1783776 48.2651625,51.2304582 48.2085698,51.2892158 C48.1950953,51.3052406 48.176231,51.3159238 48.1614091,51.3319486 L40.0107047,60.3312079 C39.1416017,61.2913604 39.221101,62.7683126 40.1912626,63.6309808 C40.6413097,64.0316008 41.2045424,64.22924 41.7650802,64.22924 C42.413202,64.22924 43.055934,63.9675016 43.5221505,63.4533727 L47.5591005,58.9958081 L47.5591005,72.385862 L9.71606306,76.6591414 L9.71606306,32.438712 L47.5591005,28.1654326 L47.5591005,39.2278847 L43.3631518,35.5435166 C42.3876005,34.6888607 40.9000195,34.7783325 40.0349588,35.7438266 C39.169898,36.7093206 39.2615244,38.1862728 40.2357283,39.0422641 L48.1627566,46.0037033 C48.5952869,46.4831118 49.2164598,46.7915892 49.917132,46.7915892 C49.9292591,46.7915892 49.9400386,46.7889184 49.9494708,46.7889184 C49.9548605,46.7889184 49.9615978,46.7862476 49.9669876,46.7862476 C50.1138592,46.7835768 50.258036,46.7715582 50.3954756,46.7421794 C50.8859461,46.6500368 51.3494678,46.4069941 51.7065411,46.0117157 L59.8572455,37.0137918 C60.7263486,36.0523039 60.6468492,34.5753517 59.6766877,33.7140188 C58.7078736,32.8500152 57.2162502,32.9314745 56.3457997,33.891627 L52.2751636,38.3879182 L52.2751636,27.6326081 L90.2839369,23.3419685 L90.2839369,67.5610625 L52.2751636,71.8530375 L52.2751636,58.0864008 Z M94.2117437,9.59269202 C93.7118411,9.14933928 93.0502448,8.94101691 92.375174,9.0144639 L7.09123711,18.644032 C5.90009432,18.7789073 5,19.7777864 5,20.9662922 L5,30.3528175 L5,79.2778604 L5,88.6630503 C5,89.3294148 5.28700612,89.9637297 5.78825625,90.4070825 C6.22213406,90.7916776 6.78132439,91 7.35803153,91 C7.44561556,91 7.53589448,90.9959938 7.62482595,90.9853106 L92.9087629,81.3557426 C94.0999057,81.2208672 95,80.2219881 95,79.0334823 L95,69.646957 L95,20.7232495 L95,11.3367242 C95,10.6703597 94.7129939,10.0360448 94.2117437,9.59269202 L94.2117437,9.59269202 Z" id="icon" fill="#000000"></path>
    </g>
</svg>

<svg width="100" height="100" xmlns="http://www.w3.org/2000/svg"><g id="aspect-ratio-/-fit" stroke="none" stroke-width="1" fill="none" fill-rule="evenodd"><path d="M52.275 58.086l4.231 3.714a2.371 2.371 0 0 0 3.327-.199 2.321 2.321 0 0 0-.2-3.3l-8.153-7.157c-.035-.032-.077-.052-.114-.082a2.51 2.51 0 0 0-.207-.148 2.688 2.688 0 0 0-.194-.103 1.833 1.833 0 0 0-.435-.164 2.042 2.042 0 0 0-.217-.05 2.276 2.276 0 0 0-.25-.026c-.049-.003-.096-.015-.146-.015-.023 0-.044.007-.067.007a2.204 2.204 0 0 0-.247.025c-.073.01-.145.016-.217.034a1.83 1.83 0 0 0-.215.065c-.073.025-.147.047-.216.077s-.132.069-.195.106c-.069.037-.138.073-.201.119-.06.04-.112.09-.167.136-.064.053-.127.105-.183.164-.014.016-.033.027-.048.043l-8.15 9a2.32 2.32 0 0 0 .18 3.299c.45.4 1.014.598 1.574.598.648 0 1.29-.261 1.757-.776l4.037-4.457v13.39L9.716 76.659V32.44l37.843-4.274v11.063l-4.196-3.684a2.374 2.374 0 0 0-3.328.2 2.321 2.321 0 0 0 .2 3.298l7.928 6.962a2.35 2.35 0 0 0 1.754.788c.012 0 .023-.003.032-.003l.018-.003c.147-.002.291-.014.428-.044.49-.092.954-.335 1.312-.73l8.15-8.998c.87-.962.79-2.439-.18-3.3a2.373 2.373 0 0 0-3.331.178l-4.07 4.496V27.633l38.008-4.291v44.22l-38.009 4.291V58.086zM94.212 9.593a2.367 2.367 0 0 0-1.837-.579l-85.284 9.63A2.345 2.345 0 0 0 5 20.966v67.697c0 .666.287 1.3.788 1.744a2.365 2.365 0 0 0 1.837.578l85.284-9.63A2.345 2.345 0 0 0 95 79.034V11.337c0-.667-.287-1.301-.788-1.744z" id="icon" fill="#000"/></g></svg>
